X:1
T:Title
%%score { ( 1 3 5 ) | ( 2 4 6 ) }
L:1/8
M:6/4
K:Ab
V:1 treble nm="Grand Piano"
V:3 treble 
V:5 treble 
V:2 bass 
V:4 bass 
V:6 bass 
V:1
 z6 z4[Q:1/4=189] [CE][CA] | [Ec]2 [=D_c]2 [E=c]2 [CE]2 [CA]2 [Ec]2 | [Ee]6 [Ec]4 [EA]2 | %3
 B2 c2 d2 G2 A2 B2 | [CA]6- [CA]4 EA | [Ec]2 [=D_c]2 [E=c]2 E2 A2 [Ec]2 |[M:5/4] e2 =d2 e2 c4 | %7
[M:1/4] [Ec]2 |[M:6/4] [EB]2 [Ec]2 [EB]2 [=DF]2 [DG]2 [DA]2 |[M:5/4] [DB]2- [DB]2- [DB]6 | %10
[M:11/32] [Ge]/4-[Ge]/4-[Ge]/4-[Ge]/4-[Ge]/4-[Ge]/4-[Ge]/-<[Ge]/ z/4 | %11
[M:6/4] c2- c/4 z/4 z/ z z2 [Ec]2- [Ec]/4 z/4 z/ z [Fd]2- | %12
 [Fd]3/4 z/4 z z2 z2 [CA]4- [CA]/4 z/4 z/ z | .G4 G2 [Ge]4- [Ge]/4 z/4 z/ z | %14
 c6- c4- c/4 z/4 z/ z | F2- F/4 z/4 z/ z z2 [FA]2- [FA]/4 z/4 z/ z z2 | %16
 E2 [EA]2- [EA]/4 z/4 z/ z c4- c/4 z/4 z/ z | [Ge]2- [Ge]/4 z/4 z/ z d2- d/4 z/4 z/ z z2 B2- | %18
[M:5/4] B3/4 z/4 z z2 D2- D/4 z/4 z/ z z2 |] %19
V:2
 z6 z4 [A,,A,][A,,A,] | [A,,A,]2 [A,,A,]2 [A,,A,]2 [A,,A,]2 [A,,A,]2 [A,,A,]2 | %2
 [A,,C]6 [A,,A,]4 [C,A,]2 | [E,G,E]2 [E,A,E]2 [E,B,E]2 [E,B,D]2 [E,A,C]2 [E,G,D]2 | %4
 [A,,A,]6- [A,,A,]4 [A,,A,]2 | [A,,A,]2 [A,,A,]2 [A,,A,]2 [A,,A,]4 [A,,A,]2 | %6
[M:5/4][K:treble] [A,CE]2 [A,CF]2[K:bass] [A,CE]2 [A,E]4 |[M:1/4] [A,,A,]2 | %8
[M:6/4] [B,,G,]2 [B,,G,]2 [B,,G,]2 [B,,A,]2 [B,,G,]2 [B,,F,]2 |[M:5/4] [E,G,]2- [E,G,]2- [E,G,]6 | %10
[M:11/32] B,/4-B,/4-B,/4-B,/4-B,/4-B,/4-B,/-<B,/ z/4 | %11
[M:6/4] [A,,A,]2 [A,,A,]2 [A,,A,]2 [A,,A,]2 [A,,A,]2 [A,,A,]2 | A,6- A,/4 z/4 z/ z z2 [A,E]2- | %13
 [A,E]3/4 z/4 z z2 D2- D/4 z/4 z/ z z2 z2 | A,6- A,4 A,2 | %15
 A,2- A,/4 z/4 z/ z A,2- A,/4 z/4 z/ z z2 A,2 | A,2 [C,A,]2- [C,A,]/4 z/4 z/ z z4 [A,CA]2- | %17
 [A,CA]3/4 z/4 z .[E,E]4 [E,E]3- [E,E-]/>E/- E/4 z/4 z/ z |[M:5/4] A,,4- A,,3/2-A,,/4 z/4 z4 |] %19
V:3
 x12 | x12 | x12 | x12 | z6 z4 C2 | z6 .C6 |[M:5/4] x10 |[M:1/4] x2 |[M:6/4] x12 |[M:5/4] x10 | %10
[M:11/32] z/4 z/4 z/4 z/4 z/4 z/4 z/ [Fd]3/4 |[M:6/4] E2 E2- E/4 z/4 z/ z z6 | x12 | %13
 e2- [G-B-e]/<[GB]/-[GB] B2- B/4 z/4 z/ z z2 z2 | x12 | z4 F2 z2 [_EG]3/2-[EG]/4 z/4 z2 | %16
 C2- C/4 z/4 z/ z z2 z4 e2 | z2 B2- B/4 z/4 z/ z c4- c/4 z/4 z/ z | %18
[M:5/4] [CA]4- [CA-]/<A/-A- A4 |] %19
V:4
 x12 | x12 | x12 | x12 | x12 | x12 |[M:5/4][K:treble] x4[K:bass] x6 |[M:1/4] x2 |[M:6/4] x12 | %9
[M:5/4] x10 |[M:11/32] E,/4-E,/4-E,/4-E,/4-E,/-<E,/[E,G,]3/4 |[M:6/4] x12 | %12
 z6 [A,,E,]4- [A,,E,]/4 z/4 z/ z | .E,6 E,4 [E,G,]2- | [E,G,]3/4 z/4 z z2 z2 z6 | %15
 z2 .[D,D]4 D4- D/4 z/4 z/ z | z4 E2 E4- E/4 z/4 z/ z | %17
 B,2- B,/4 z/4 z/ z B,2- B,/4 z/4 z/ z z2 [E,G,D]2- | %18
[M:5/4] [E,G,D]3/4 z/4 z z2 F,2- F,/4 z/4 z/ z z2 |] %19
V:5
 x12 | x12 | x12 | x12 | x12 | x12 |[M:5/4] x10 |[M:1/4] x2 |[M:6/4] x12 |[M:5/4] x10 | %10
[M:11/32] x11/4 |[M:6/4] z2 C2 [CA]2- [CA]/4 z/4 z/ z [CA]2- [CA]/4 z/4 z/ z | %12
 [Ec]6- [Ec]/4 z/4 z/ z z2 c2- | c3/4 z/4 z z2 z2 z4 d2- | d3/4 z/4 z z2 z2 z4 [CE]2- | %15
 [CE]3/4 z/4 z =E2- E/4 z/4 z/ z z4 [DF]2- | [DF]3/4 z/4 z z2 B2- B/4 z/4 z/ z z2 z2 | %17
 z6 z2 F,3/2-F,/4 z/4 z2 |[M:5/4] A,2- A,/4 z/4 z/ z z2 C4 |] %19
V:6
 x12 | x12 | x12 | x12 | x12 | x12 |[M:5/4][K:treble] x4[K:bass] x6 |[M:1/4] x2 |[M:6/4] x12 | %9
[M:5/4] x10 |[M:11/32] x11/4 |[M:6/4] x12 | A,,6 z6 | %13
 B,2- [E,-B,D-]/<[E,D]/-[E,D] E,2 B,4- [B,E-]/<E/-E | E6- E4- [A,,-E]/<A,,/-A,,- | %15
 [A,,D,-D-]/>[D,D]/-[D,D] G,2- [D,-G,D-]/<[D,D]/-[D,D] D,4 D,2- | %16
 [A,,-D,]/>A,,/-A,,- A,,/4 z/4 z/ z [E,G,]2- [E,G,A,-]/<A,/-A,- A,4 | %17
 E,2 G,2- [E,-G,E-]/<[E,E]/-[E,E] A,2- A,/4 z/4 z/ z z2 |[M:5/4] z2 E,3/2-E,/4 z/4 z2 [A,,E,]4 |] %19

